X:8
T:An dro de saint Patrick
T:St. Patrick's An Dro
R:an dro
H:Also in Am or Em
O:Bretagne
Z:id:hn-andro-8
M:2/4
L:1/16
K:Bm
Bcdc B2f2 | d2B2 c2f2 | efed c2Bc | d2Bd c4 |
Bcdc B2f2 | d2B2 c2f2 | efed c2Bc | dBcA B4 :|
|: Bcde f2f2 | e2a2 f2d2 | Bcdf e3f | efed c4 |
Bcde f2f2 | e2a2 f2d2 | Bcdf e2c2 | dBcA B4 :|

